icons/svg/play-circle-outline.svg

﻿<?xml version="1.0" encoding="utf-8"?>
<!DOCTYPE svg PUBLIC "-//W3C//DTD SVG 1.1//EN" "http://www.w3.org/Graphics/SVG/1.1/DTD/svg11.dtd">
<svg xmlns="http://www.w3.org/2000/svg" xmlns:xlink="http://www.w3.org/1999/xlink" version="1.1" baseProfile="full" width="24" height="24" viewBox="0 0 24.00 24.00" enable-background="new 0 0 24.00 24.00" xml:space="preserve">
	<path fill="#000000" fill-opacity="1" stroke-width="0.2" stroke-linejoin="round" d="M 11.9994,20.1368C 7.58842,20.1368 3.99943,16.5479 3.99943,12.1368C 3.99943,7.72583 7.58842,4.13684 11.9994,4.13684C 16.4104,4.13684 19.9994,7.72583 19.9994,12.1368C 19.9994,16.5479 16.4104,20.1368 11.9994,20.1368 Z M 11.9994,2.13684C 6.47642,2.13684 1.99943,6.61383 1.99943,12.1368C 1.99943,17.6599 6.47642,22.1368 11.9994,22.1368C 17.5224,22.1368 21.9994,17.6599 21.9994,12.1368C 21.9994,6.61383 17.5224,2.13684 11.9994,2.13684 Z M 9.99943,16.6368L 15.9994,12.1368L 9.99943,7.63684L 9.99943,16.6368 Z "/>
</svg>

<svg xmlns="http://www.w3.org/2000/svg" version="1.1" baseProfile="full" width="24" height="24" viewBox="0 0 24.00 24.00" xml:space="preserve"><path fill="#000" fill-opacity="1" stroke-width=".2" stroke-linejoin="round" d="M12 20.137c-4.412 0-8-3.59-8-8s3.588-8 8-8c4.41 0 8 3.59 8 8s-3.59 8-8 8zm0-18c-5.524 0-10 4.477-10 10s4.476 10 10 10c5.522 0 10-4.477 10-10s-4.478-10-10-10zm-2 14.5l6-4.5-6-4.5v9z"/></svg>
